www/assets/icons/shop.svg

<svg xmlns="http://www.w3.org/2000/svg" width="24" height="24" viewBox="0 0 24 24" fill='currentColor'><path d="M16 6.5v-2c0-1.11-.89-2-2-2h-4c-1.11 0-2 .89-2 2v2H2v13c0 1.11.89 2 2 2h16c1.11 0 2-.89 2-2v-13zm-6-2h4v2h-4zm-1 14v-9l7.5 4z"/></svg>

<svg width="24" height="24" viewBox="0 0 24 24" xmlns="http://www.w3.org/2000/svg" fill='currentColor'><path d="M16 6.5V4.5C16 3.39 15.11 2.5 14 2.5H10C8.89 2.5 8 3.39 8 4.5V6.5H2V19.5C2 20.61 2.89 21.5 4 21.5H20C21.11 21.5 22 20.61 22 19.5V6.5H16ZM10 4.5H14V6.5H10V4.5ZM9 18.5V9.5L16.5 13.5L9 18.5Z"/></svg>
